X:098 
T:Kiss the Maid Behind the Barrel (reel) 
B:CRE5.170 (Tabhair PÃÂÃÂÃÂÃÂ³g don Gearrchaile Taobh Thiar
den Bhairille)[another "back-translation" monstrosity!]
F:file ID: cre.5/098kiss_m
M:4/4
Q:180
R:reel
K:G
DGG2 AGG2|DGG2 cAGF|DGG2 AG (3ABc|defd cAGF|
"5"DG~G2 AGFD|DG~G2 cAFD|[G4B4] c2 (3ABc|defd cAFA||
"9"dgfg agfg|dgfg agfe|af~f2 af~f2|defd cAFD|
"13"dg~g2 bgfg|a>bag fefg|afge faef|d2eg fdcA||
"17"G2dG DGdG|G2Bd cAFD|G2dG DGBc|defd cAFD|
"21"G2dG DGdG|G2BB cAFD|G2BG DGBc|defd cAFA||
"25"g2bg agab|g2bg defa|g2bg agbg|defd cAFA|
"33"g2bg agab|g2bg defg|abag f2 fe|d2ed cAFA||
"37"BdBG AcAF|G2FG cAFA|BdBG A2 (3ABc|defd cAFA|
"41"B2AB A2A/B/A|G2GA cAFA|B2B/c/B c2A/G/A|d2fd cAFA||
"45"GABd G2DG|G2Bd cAFA|GBAF G2Bd|d2fd cAFA|
"49"GBAF G2DF|GABd cAFD|EGAB c2 (3ABc|defd cAGF|G8|]

%%%

